X: 466
T: Munster Bank (Polka)
B: good tune book
B: tunes
M:2/4
R: polka
Q: 1/4=100
K:Amajor
V:1 
|:A/B/A/F/ EF|AB ce|fe c2|BA F2|
 A/B/A/F/ EF|AB ce|fe c2|BA A2:|
 |:fe ce|fe ce|a>f ec|(3B/c/B/A F2|A/B/A/F/ EF|AB ce|fe c2|BA A2:|
% abcbook-tune_id 63ce6af366cb3fbca7ab2f31
% abcbook-tune_composer_id 
% abcbook-link-0 https://www.youtube.com/watch?v=4U_Z7ibV6CM
% abcbook-boost 0
% abcbook-difficulty 0
% abcbook-tags good tune book
% abcbook-tablature 
% abcbook-transpose 
% abcbook-tuning 
% abcbook-lastupdated 1675476279317
% abcbook-soundfonts 
% abcbook-repeats 1


